!!!OTL: MORGEN MUESSEN WIR VERREISEN
!!!ARE: Europa, Mitteleuropa, Deutschland
!!!SCT: B0490
!!!YEM: Copyright 1995, estate of Helmut Schaffrath.
**kern
*ICvox
*Ivox
*M3/4
*k[b-]
*F:
=1
{8.a
16a
8a
8b-
8a
8b-
=2
4dd
4cc
4r}
=3
{8.dd
16cc
8dd
8cc
8a
8f
=4
2g
4r}
=5
{8.g
16g
8g
8a
8g
8a
=6
4cc
4b-}
{8.cc
16b-
=7
4.a
8f
8b-
8dd
=8
4dd
4cc}
{8.cc
16ff
=9
4ff
8a
8dd
8.cc
16e
=10
2f
4r}
==
!!!AGN: Abschieds - Lied
!!!ONB: ESAC (Essen Associative Code) Database: BOEHME
!!!AMT: simple triple
!!!AIN: vox
!!!EED: Helmut Schaffrath
!!!EEV: 1.0
*-
